X: 121895
T: Laune Rangers
S: "The Roche Collection of Traditional Irish Music" [I/72/187]
L: 1/8
M: 4/4
R: reel
K: D
(3ABc |: dcdf edcB | A2 (3FED FAAB | dcdf ecdB | BAFA FE (3FED :|
Beee egfe | defg afdf | e2 ef g2 fe | dBA=c BEED |
Beee egfe | defg afdf | gfge fgfe | dBA=c BEED |]
